icon-themes/sifr_svg/cmd/sc_titleparastyle.svg

<svg viewBox="0 0 16 16" xmlns="http://www.w3.org/2000/svg"><path d="m1 2v2h4v10h2v-10h4v-2zm12 2c0 1.1635126-1 2-2 2v2h2v6h2v-10z" fill="#555753"/></svg>

<svg xmlns="http://www.w3.org/2000/svg" viewBox="0 0 16 16">
  <path
     style="fill:#555753"
     d="M 1 2 L 1 4 L 5 4 L 5 14 L 7 14 L 7 4 L 11 4 L 11 2 L 1 2 z M 13 4 C 13 5.1635126 12 6 11 6 L 11 8 L 13 8 L 13 14 L 15 14 L 15 4 L 13 4 z "
     />
</svg>
